X:1
T:The Wildcat
C:via Natalie MacMaster
R:reel
Z:Natalie MacMaster "My Roots Are Showing"
M:4/4
K:G
L: 1/8
|: BDGB DGBd|gBdg Bdgd|bagf agfe|dedc BcA^A|
BDGB DGBd|gBdg Bdgb|agfe dedc|B2 A2 G4 :|
B4 G4| Bcdc BcdB|c4 A4| cBAB cedc|
B4 G4| Bcdc BcdB|cdcB AcBA|G2 B,2 G4 |
B4 G4| Bcdc BcdB|c4 A4| cded cedc|
B4 G4| Bcdc BcdB|cdcB AcBA|G2 B,2 G,4 |]
